build/img/icon-bulldozer.svg

<svg width="52" height="34" viewBox="0 0 52 34" fill="none" xmlns="http://www.w3.org/2000/svg">
<g opacity="0.95">
<path opacity="0.95" d="M9.97464 24.6492C8.89044 24.6492 8.02308 25.5077 8.02308 26.55C8.02308 27.6231 8.89044 28.4815 9.97464 28.4815C11.0279 28.4815 11.9262 27.6231 11.9262 26.55C11.9262 25.5077 11.0279 24.6492 9.97464 24.6492ZM31.194 24.6492C30.1098 24.6492 29.2424 25.5077 29.2424 26.55C29.2424 27.6231 30.1098 28.4815 31.194 28.4815C32.2782 28.4815 33.1455 27.6231 33.1455 26.55C33.1455 25.5077 32.2782 24.6492 31.194 24.6492ZM37.978 26.642C37.978 24.0054 35.8096 21.89 33.1765 21.89H7.46549C4.80146 21.89 2.66403 24.0054 2.66403 26.642C2.66403 29.248 4.80146 31.394 7.46549 31.394H33.1765C35.8096 31.394 37.978 29.248 37.978 26.642ZM11.7094 12.5086C11.9572 12.6925 12.205 12.8458 12.4218 13.0604H25.1225L21.1574 2.11542H11.7094V12.5086ZM40.642 26.642C40.642 30.6889 37.2965 34 33.1765 34H7.46549C3.34553 34 0 30.6889 0 26.642C0 24.4346 0.960292 22.4725 2.50915 21.1235V17.4752C2.50915 14.2254 5.17318 11.5582 8.48774 11.5582C8.85946 11.5582 9.23119 11.6195 9.57194 11.6808V1.07304C9.57194 0.490532 10.0676 0 10.6561 0H21.9628C22.4584 0 22.8921 0.337241 22.985 0.797114L27.3838 13.3977H28.0033C28.0033 13.5816 27.9724 13.7656 27.9724 13.9495V17.2606L28.0033 19.2534H33.1765C37.2965 19.2534 40.642 22.5645 40.642 26.642ZM51.9797 16.6168C51.9487 16.7394 51.8248 16.8314 51.7009 16.9234L45.5054 19.9279L42.036 21.3995C41.974 21.4301 41.8811 21.4301 41.8191 21.4301C41.6333 21.4301 41.4784 21.3381 41.3855 21.1849C41.2306 20.9702 41.2616 20.6943 41.4784 20.5104L42.8104 19.3147L44.9169 17.2913L41.4474 11.4049C41.3545 11.2209 41.3545 11.0063 41.4474 10.8224C41.5713 10.6691 41.7882 10.5771 41.974 10.6078L44.2973 10.9143L41.4474 6.07033L38.3497 6.95942L33.3004 17.8431H28.0033V15.2372H31.5967L36.4291 4.75203L42.7175 3.00451L47.6429 11.4049L49.3776 11.6195C49.5325 11.6501 49.6873 11.7728 49.7803 11.9261L51.9487 16.1876C52.0106 16.3102 52.0106 16.4635 51.9797 16.6168Z" fill="white"/>
</g>
</svg>

<svg width="52" height="34" fill="none" xmlns="http://www.w3.org/2000/svg"><path opacity=".95" d="M9.975 24.65c-1.085 0-1.952.858-1.952 1.9 0 1.073.867 1.931 1.952 1.931 1.053 0 1.951-.858 1.951-1.931 0-1.042-.898-1.9-1.951-1.9zm21.219 0c-1.084 0-1.952.858-1.952 1.9 0 1.073.868 1.931 1.952 1.931a1.933 1.933 0 001.951-1.931c0-1.042-.867-1.9-1.951-1.9zm6.784 1.992c0-2.637-2.168-4.752-4.802-4.752H7.466c-2.665 0-4.802 2.115-4.802 4.752 0 2.606 2.137 4.752 4.801 4.752h25.711c2.634 0 4.802-2.146 4.802-4.752zM11.709 12.509c.248.184.496.337.713.551h12.7L21.157 2.115H11.71V12.51zm28.933 14.133c0 4.047-3.346 7.358-7.466 7.358H7.466C3.345 34 0 30.689 0 26.642c0-2.207.96-4.17 2.51-5.518v-3.649c0-3.25 2.663-5.917 5.978-5.917.371 0 .743.062 1.084.123V1.073C9.572.491 10.068 0 10.656 0h11.307c.495 0 .93.337 1.022.797l4.399 12.6h.62c0 .185-.032.369-.032.553v3.31l.031 1.993h5.173c4.12 0 7.466 3.311 7.466 7.389zM51.98 16.617c-.031.122-.155.214-.28.306l-6.195 3.005-3.469 1.471c-.062.031-.155.031-.217.031a.495.495 0 01-.434-.245.485.485 0 01.093-.675l1.332-1.195 2.107-2.024-3.47-5.886a.644.644 0 010-.583.593.593 0 01.527-.214l2.323.306-2.85-4.844-3.097.89-5.05 10.883h-5.297v-2.606h3.594l4.832-10.485 6.288-1.747 4.926 8.4 1.735.215c.154.03.31.153.402.306l2.169 4.262c.062.122.062.276.03.429z" fill="#fff"/></svg>
